assets/icons/regular/notepad-2-regular.svg

<svg width="32" height="32" viewBox="0 0 32 32" fill="none" xmlns="http://www.w3.org/2000/svg">
<path d="M6 5C6 3.89543 6.89543 3 8 3H20L26 9V27C26 28.1046 25.1046 29 24 29H8C6.89543 29 6 28.1046 6 27V5Z" fill="url(#paint0_linear_7421_2768)"/>
<path d="M26 9L20 3V7C20 8.10457 20.8954 9 22 9H26Z" fill="#DCCFE8"/>
<path fill-rule="evenodd" clip-rule="evenodd" d="M9.5 13C9.22386 13 9 13.2239 9 13.5C9 13.7761 9.22386 14 9.5 14H22.5C22.7761 14 23 13.7761 23 13.5C23 13.2239 22.7761 13 22.5 13H9.5ZM9.5 16C9.22386 16 9 16.2239 9 16.5C9 16.7761 9.22386 17 9.5 17H22.5C22.7761 17 23 16.7761 23 16.5C23 16.2239 22.7761 16 22.5 16H9.5ZM9 19.5C9 19.2239 9.22386 19 9.5 19H22.5C22.7761 19 23 19.2239 23 19.5C23 19.7761 22.7761 20 22.5 20H9.5C9.22386 20 9 19.7761 9 19.5ZM9.5 22C9.22386 22 9 22.2239 9 22.5C9 22.7761 9.22386 23 9.5 23H22.5C22.7761 23 23 22.7761 23 22.5C23 22.2239 22.7761 22 22.5 22H9.5Z" fill="#A1A2CD"/>
<path d="M24.8493 12.7071C25.2398 12.3166 25.873 12.3166 26.2635 12.7071L29.0919 15.5355C29.4825 15.9261 29.4825 16.5592 29.0919 16.9497L16.364 29.6777L12.1214 25.435L24.8493 12.7071Z" fill="url(#paint1_linear_7421_2768)"/>
<path d="M12.1213 29.6772V25.4346L16.364 29.6772H12.1213Z" fill="url(#paint2_linear_7421_2768)"/>
<path d="M12.1213 29.6779V28.2637L13.5356 29.6779H12.1213Z" fill="#1C1C1C"/>
<rect x="23.4351" y="14.1211" width="6" height="3" transform="rotate(45 23.4351 14.1211)" fill="url(#paint3_linear_7421_2768)"/>
<defs>
<linearGradient id="paint0_linear_7421_2768" x1="16" y1="3" x2="16" y2="31" gradientUnits="userSpaceOnUse">
<stop stop-color="#F1ECF7"/>
<stop offset="1" stop-color="#E8DEF2"/>
</linearGradient>
<linearGradient id="paint1_linear_7421_2768" x1="27.6777" y1="14.1213" x2="14.2427" y2="27.5563" gradientUnits="userSpaceOnUse">
<stop stop-color="#FF6659"/>
<stop offset="1" stop-color="#FF8749"/>
</linearGradient>
<linearGradient id="paint2_linear_7421_2768" x1="14.2427" y1="27.5559" x2="12.1213" y2="29.6772" gradientUnits="userSpaceOnUse">
<stop stop-color="#FFBA9F"/>
<stop offset="1" stop-color="#DE8893"/>
</linearGradient>
<linearGradient id="paint3_linear_7421_2768" x1="23.7487" y1="15.05" x2="30.8198" y2="15.05" gradientUnits="userSpaceOnUse">
<stop stop-color="#E3DBEF"/>
<stop offset="0.807292" stop-color="#F6F1FE"/>
<stop offset="1" stop-color="#EADEFC"/>
</linearGradient>
</defs>
</svg>

<svg xmlns="http://www.w3.org/2000/svg" width="32" height="32" fill="none" viewBox="0 0 32 32"><path fill="url(#a)" d="M6 5a2 2 0 0 1 2-2h12l6 6v18a2 2 0 0 1-2 2H8a2 2 0 0 1-2-2z"/><path fill="#DCCFE8" d="m26 9-6-6v4a2 2 0 0 0 2 2z"/><path fill="#A1A2CD" fill-rule="evenodd" d="M9.5 13a.5.5 0 0 0 0 1h13a.5.5 0 0 0 0-1zm0 3a.5.5 0 0 0 0 1h13a.5.5 0 0 0 0-1zM9 19.5a.5.5 0 0 1 .5-.5h13a.5.5 0 0 1 0 1h-13a.5.5 0 0 1-.5-.5m.5 2.5a.5.5 0 0 0 0 1h13a.5.5 0 0 0 0-1z" clip-rule="evenodd"/><path fill="url(#b)" d="M24.85 12.707a1 1 0 0 1 1.413 0l2.829 2.829a1 1 0 0 1 0 1.414L16.364 29.678l-4.243-4.243z"/><path fill="url(#c)" d="M12.121 29.678v-4.242l4.243 4.242z"/><path fill="#1C1C1C" d="M12.121 29.678v-1.414l1.415 1.414z"/><path fill="url(#d)" d="M23.435 14.121h6v3h-6z" transform="rotate(45 23.435 14.121)"/><defs><linearGradient id="a" x1="16" x2="16" y1="3" y2="31" gradientUnits="userSpaceOnUse"><stop stop-color="#F1ECF7"/><stop offset="1" stop-color="#E8DEF2"/></linearGradient><linearGradient id="b" x1="27.678" x2="14.243" y1="14.121" y2="27.556" gradientUnits="userSpaceOnUse"><stop stop-color="#FF6659"/><stop offset="1" stop-color="#FF8749"/></linearGradient><linearGradient id="c" x1="14.243" x2="12.121" y1="27.557" y2="29.678" gradientUnits="userSpaceOnUse"><stop stop-color="#FFBA9F"/><stop offset="1" stop-color="#DE8893"/></linearGradient><linearGradient id="d" x1="23.749" x2="30.82" y1="15.05" y2="15.05" gradientUnits="userSpaceOnUse"><stop stop-color="#E3DBEF"/><stop offset=".807" stop-color="#F6F1FE"/><stop offset="1" stop-color="#EADEFC"/></linearGradient></defs></svg>
